Adwaita++-Dark/actions/22/document-export.svg

<svg height="22" viewBox="0 0 22 22" width="22" xmlns="http://www.w3.org/2000/svg">
  <path d="m3 1.0097656s-1 0-1 1v8.9960934 3.003907c0 1 1 1 1 1h10c1 0 1-1 1-1v-4.2500004l-2 1.2500004v2h-8v-9.9960941h8v1.9960937l2 1.25v-4.25c0-1-1-1-1-1zm7 3.9980469v2h-4v2h4v1.9999995l4.5-2.9999995z" fill="#e6ddff" transform="translate(3 3)"/>
</svg>

<svg xmlns="http://www.w3.org/2000/svg" width="22" height="22" viewBox="0 0 22 22">
 <defs>
  <style id="current-color-scheme" type="text/css">
   .ColorScheme-Text { color:#E6DDFF; } .ColorScheme-Highlight { color:#4285f4; }
  </style>
 </defs>
 <path style="fill:currentColor" class="ColorScheme-Text" d="M 3 1.0097656 C 3 1.0097656 2 1.0097656 2 2.0097656 L 2 11.005859 L 2 14.009766 C 2 15.009766 3 15.009766 3 15.009766 L 13 15.009766 C 14 15.009766 14 14.009766 14 14.009766 L 14 9.7597656 L 12 11.009766 L 12 13.009766 L 4 13.009766 L 4 3.0136719 L 12 3.0136719 L 12 5.0097656 L 14 6.2597656 L 14 2.0097656 C 14 1.0097656 13 1.0097656 13 1.0097656 L 3 1.0097656 z M 10 5.0078125 L 10 7.0078125 L 6 7.0078125 L 6 9.0078125 L 10 9.0078125 L 10 11.007812 L 14.5 8.0078125 L 10 5.0078125 z" transform="translate(3 3)"/>
</svg>
